src/extras-openmoji/ui-element/E24A.svg

<svg id="emoji" viewBox="0 0 72 72" xmlns="http://www.w3.org/2000/svg">
  <g id="grid">
    <path fill="#b3b3b3" d="M68,4V68H4V4H68m4-4H0V72H72V0Z"/>
    <path fill="none" stroke="#00a5ff" stroke-miterlimit="10" stroke-width="0.1" d="M12.923,10.9583H59.0769A1.9231,1.9231,0,0,1,61,12.8814V59.0352a1.9231,1.9231,0,0,1-1.9231,1.9231H12.9231A1.9231,1.9231,0,0,1,11,59.0352V12.8813A1.923,1.923,0,0,1,12.923,10.9583Z"/>
    <rect x="16" y="4" rx="2.2537" width="40" height="64" fill="none" stroke="#00a5ff" stroke-miterlimit="10" stroke-width="0.1"/>
    <rect x="16" y="4" rx="2.2537" width="40" height="64" transform="translate(72) rotate(90)" fill="none" stroke="#00a5ff" stroke-miterlimit="10" stroke-width="0.1"/>
    <circle cx="36" cy="36" r="29" fill="none" stroke="#00a5ff" stroke-miterlimit="10" stroke-width="0.1"/>
  </g>
  <g id="color">
    <ellipse cx="20" cy="26.0208" rx="13.8" ry="13.8205" fill="#FCEA2B" stroke="#FCEA2B" stroke-miterlimit="10" stroke-width="2"/>
    <path fill="#FCEA2B" stroke="none" d="M18.3981,39.9096C15.2441,44.248,11,46,5,46c2.874-1.916,5.748-5.6676,6.8636-8.617L18.3981,39.9096z"/>
    <circle cx="52" cy="41.28" r="13.8" fill="#FCEA2B" stroke="#FCEA2B" stroke-miterlimit="10" stroke-width="2"/>
    <path fill="#FCEA2B" stroke="none" d="M53.6019,55.1896C56.7559,59.528,61,61.28,67,61.28c-2.874-1.916-5.748-5.6676-6.8636-8.617 L53.6019,55.1896z"/>
  </g>
  <g id="hair"/>
  <g id="skin"/>
  <g id="skin-shadow"/>
  <g id="line">
    <circle cx="13" cy="26" r="2" fill="#000000" stroke="none"/>
    <circle cx="20" cy="26" r="2" fill="#000000" stroke="none"/>
    <circle cx="27" cy="26" r="2" fill="#000000" stroke="none"/>
    <path fill="none" stroke="#000000" stroke-linecap="round" stroke-linejoin="round" stroke-miterlimit="10" stroke-width="2" d="M11.8636,37.383C10.748,40.3324,7.874,44.084,5,46c6,0,10.2441-1.752,13.3981-6.0904"/>
    <path fill="none" stroke="#000000" stroke-linecap="round" stroke-miterlimit="10" stroke-width="2" d="M22.2749,39.8161 C28.9249,38.7295,34,32.9574,34,26c0-7.732-6.268-14-14-14S6,18.268,6,26c0,3.3337,1.1652,6.3952,3.1105,8.7995"/>
    <circle cx="59" cy="41.28" r="2" fill="#000000" stroke="none"/>
    <circle cx="52" cy="41.28" r="2" fill="#000000" stroke="none"/>
    <circle cx="45" cy="41.28" r="2" fill="#000000" stroke="none"/>
    <path fill="none" stroke="#000000" stroke-linecap="round" stroke-linejoin="round" stroke-miterlimit="10" stroke-width="2" d="M60.1364,52.663C61.252,55.6124,64.126,59.364,67,61.28c-6,0-10.2441-1.752-13.3981-6.0904"/>
    <path fill="none" stroke="#000000" stroke-linecap="round" stroke-miterlimit="10" stroke-width="2" d="M49.7251,55.0961 C43.0751,54.0095,38,48.2374,38,41.28c0-7.732,6.268-14,14-14s14,6.268,14,14c0,3.3337-1.1652,6.3952-3.1105,8.7995"/>
  </g>
</svg>

<svg viewBox="0 0 72 72" xmlns="http://www.w3.org/2000/svg"><path fill="#b3b3b3" d="M68 4v64H4V4h64m4-4H0v72h72V0z"/><path fill="none" stroke="#00a5ff" stroke-miterlimit="10" stroke-width=".1" d="M12.923 10.958h46.154A1.923 1.923 0 0161 12.881v46.154a1.923 1.923 0 01-1.923 1.923H12.923A1.923 1.923 0 0111 59.035V12.881a1.923 1.923 0 011.923-1.923z"/><rect x="16" y="4" rx="2.254" width="40" height="64" fill="none" stroke="#00a5ff" stroke-miterlimit="10" stroke-width=".1"/><rect x="16" y="4" rx="2.254" width="40" height="64" transform="rotate(90 36 36)" fill="none" stroke="#00a5ff" stroke-miterlimit="10" stroke-width=".1"/><circle cx="36" cy="36" r="29" fill="none" stroke="#00a5ff" stroke-miterlimit="10" stroke-width=".1"/><g stroke-linecap="round" stroke-miterlimit="10" stroke-width="6" stroke="#fff" fill="none" stroke-linejoin="round"><circle cx="13" cy="26" r="2"/><circle cx="20" cy="26" r="2"/><circle cx="27" cy="26" r="2"/><path d="M11.864 37.383C10.748 40.333 7.874 44.084 5 46c6 0 10.244-1.752 13.398-6.09m3.877-.094C28.925 38.73 34 32.957 34 26c0-7.732-6.268-14-14-14S6 18.268 6 26c0 3.334 1.165 6.395 3.11 8.8"/><circle cx="59" cy="41.28" r="2"/><circle cx="52" cy="41.28" r="2"/><circle cx="45" cy="41.28" r="2"/><path d="M60.136 52.663c1.116 2.95 3.99 6.701 6.864 8.617-6 0-10.244-1.752-13.398-6.09m-3.877-.094C43.075 54.01 38 48.237 38 41.28c0-7.732 6.268-14 14-14s14 6.268 14 14c0 3.334-1.165 6.395-3.11 8.8"/></g><g fill="#FCEA2B"><ellipse cx="20" cy="26.021" rx="13.8" ry="13.82" stroke="#FCEA2B" stroke-miterlimit="10" stroke-width="2"/><path d="M18.398 39.91C15.244 44.248 11 46 5 46c2.874-1.916 5.748-5.668 6.864-8.617l6.534 2.527z"/><circle cx="52" cy="41.28" r="13.8" stroke="#FCEA2B" stroke-miterlimit="10" stroke-width="2"/><path d="M53.602 55.19C56.756 59.528 61 61.28 67 61.28c-2.874-1.916-5.748-5.668-6.864-8.617l-6.534 2.527z"/></g><circle cx="13" cy="26" r="2"/><circle cx="20" cy="26" r="2"/><circle cx="27" cy="26" r="2"/><path fill="none" stroke="#000" stroke-linecap="round" stroke-linejoin="round" stroke-miterlimit="10" stroke-width="2" d="M11.864 37.383C10.748 40.333 7.874 44.084 5 46c6 0 10.244-1.752 13.398-6.09"/><path fill="none" stroke="#000" stroke-linecap="round" stroke-miterlimit="10" stroke-width="2" d="M22.275 39.816C28.925 38.73 34 32.957 34 26c0-7.732-6.268-14-14-14S6 18.268 6 26c0 3.334 1.165 6.395 3.11 8.8"/><circle cx="59" cy="41.28" r="2"/><circle cx="52" cy="41.28" r="2"/><circle cx="45" cy="41.28" r="2"/><path fill="none" stroke="#000" stroke-linecap="round" stroke-linejoin="round" stroke-miterlimit="10" stroke-width="2" d="M60.136 52.663c1.116 2.95 3.99 6.701 6.864 8.617-6 0-10.244-1.752-13.398-6.09"/><path fill="none" stroke="#000" stroke-linecap="round" stroke-miterlimit="10" stroke-width="2" d="M49.725 55.096C43.075 54.01 38 48.237 38 41.28c0-7.732 6.268-14 14-14s14 6.268 14 14c0 3.334-1.165 6.395-3.11 8.8"/></svg>
